icons/mobile/24/svg/lock-warning-fill-24.svg

<!-- This Source Code Form is subject to the terms of the Mozilla Public
   - License, v. 2.0. If a copy of the MPL was not distributed with this
   - file, You can obtain one at http://mozilla.org/MPL/2.0/. -->
<svg width="24" height="24" fill="none" xmlns="http://www.w3.org/2000/svg">
    <path d="m20.846 19.266-3.311-5.773c-.454-.791-1.615-.791-2.069 0l-3.311 5.773c-.446.775.126 1.734 1.034 1.734h6.623c.907 0 1.479-.959 1.034-1.734z" fill="#000" />
    <path d="M15.875 15.5h1.25v2.25h-1.25V15.5zm0 3.25h1.25V20h-1.25v-1.25z" fill="#fff" />
    <path d="m11.07 18.644 3.311-5.773c.258-.45.646-.776 1.096-.982a2.466 2.466 0 0 1 1.012-.238l.01-.001c.162 0 .316.031.471.061A1.996 1.996 0 0 0 15 10V7c0-2.206-1.794-4-4-4S7 4.794 7 7v3c-1.103 0-2 .897-2 2v5c0 1.103.897 2 2 2h3.923c.045-.12.081-.242.147-.356zM8.5 7c0-1.379 1.121-2.5 2.5-2.5s2.5 1.121 2.5 2.5v3h-5V7z" fill="#000" />
</svg>

<!-- This Source Code Form is subject to the terms of the Mozilla Public
   - License, v. 2.0. If a copy of the MPL was not distributed with this
   - file, You can obtain one at http://mozilla.org/MPL/2.0/. -->
<svg width="24" height="24" viewBox="0 0 24 24" fill="none" xmlns="http://www.w3.org/2000/svg">
    <path fill-rule="evenodd" clip-rule="evenodd" d="M17.535 13.493L20.846 19.266C21.291 20.041 20.719 21 19.812 21H13.189C12.281 21 11.709 20.041 12.155 19.266L15.466 13.493C15.92 12.702 17.081 12.702 17.535 13.493ZM17.125 15.5H15.875V17.5H17.125V15.5ZM17.125 18.75H15.875V20H17.125V18.75Z" fill="black" />
    <path d="M11.07 18.644L14.381 12.871C14.639 12.421 15.027 12.095 15.477 11.889C15.63 11.819 15.788 11.758 15.955 11.72C16.127 11.677 16.305 11.652 16.489 11.651C16.492 11.651 16.496 11.65 16.499 11.65C16.661 11.65 16.815 11.681 16.97 11.711C16.829 10.746 16.004 10 15 10V7C15 4.794 13.206 3 11 3C8.794 3 7 4.794 7 7V10C5.897 10 5 10.897 5 12V17C5 18.103 5.897 19 7 19H10.923C10.968 18.88 11.004 18.758 11.07 18.644ZM8.5 7C8.5 5.621 9.621 4.5 11 4.5C12.379 4.5 13.5 5.621 13.5 7V10H8.5V7Z" fill="black" />
</svg>
